X:112
T: Der Ehemann (1-38), S. 99f
N: K1086V
O: Luxemburg
S: KINTZELE, Guillaume: An der Ucht, Bd. 1, Luxemburg 1926]
N: in der Quelle mit einer 2. Stimme versehen
R: Klagelied, Bedauern]
M: 4/4
L: 1/16
K: D
 | A2A2B2A2F2D2D2D2 | B2B2B2B2A4z2
A2 | d4d2A2c4c2B2 | A2G2F2E2D4z2
A2 | A2A2B2A2F2D2D2D2 | B2B2B2B2A4z2
A2 | d4d2A2c4c2B2 | A2G2F2E2D4z4

